X:7204
T:The Pidgeon on the Gate (2nd setting)
O:england
M:C|
L:1/8
R:Reel
B:The Roche Collection Vol. 1
K:EDor
dc|BE (3EEE BdAd|(3Bcd Ad BdAF|D2FD ADFD|ADFD FAdc|BE (3EEE BdAd|\
(3Bcd Ad BdAF|DFAB dfaf|(3gfe f>d e3z||B>e (3eee efed|cdef gfed|cdA>F DF
AF|\
Afa>f gfed|B>e (3eee e>fed|cdef gfga|(3bag af gefd|egfd e2||


